marketplace_builder/assets/images/temp/path.svg

<svg viewBox="0 0 389.59 489.04" xmlns="http://www.w3.org/2000/svg"><path d="m380.49 103.04-231.2-94.1 31.3 94.1-31.4 94z" fill="#d2e2ef"/><g fill="#337ab7" transform="translate(-49.73)"><path d="m439.32 103a7.77 7.77 0 0 0 -.2-1.6c0-.2-.1-.3-.1-.5-.1-.4-.2-.7-.3-1.1-.1-.2-.1-.3-.2-.5a9.14 9.14 0 0 0 -.7-1.4l-.1-.1a10.63 10.63 0 0 0 -.9-1.1l-.3-.3a5.5 5.5 0 0 0 -.9-.7c-.1-.1-.3-.2-.4-.3a10.91 10.91 0 0 0 -1.1-.6c-.1-.1-.2-.1-.3-.2l-231.2-94a9.08 9.08 0 0 0 -12 11.3l30.3 91.2-30.5 91.2a9.14 9.14 0 0 0 8.6 12 8.29 8.29 0 0 0 3.4-.7l231.4-94h.1a.53.53 0 0 0 .3-.2 10.91 10.91 0 0 0 1.1-.6c.1-.1.3-.2.4-.3.3-.2.6-.5.9-.7l.3-.3a10.59 10.59 0 0 0 1-1.2 6.11 6.11 0 0 0 .7-1.4c.1-.2.1-.3.2-.5.1-.4.2-.7.3-1.1 0-.2.1-.3.1-.5 0-.7.1-1.3.1-1.8zm-225.5-78.3 170.1 69.2h-147.1zm23 87.3h147l-170.1 69.2z"/><path d="m153 488.94a9.22 9.22 0 1 0 -6.4-2.7 8.69 8.69 0 0 0 6.4 2.7z"/><path d="m401.32 462.74a9 9 0 0 0 6.5-15.3 9.05 9.05 0 0 0 -13.1 12.5 9.41 9.41 0 0 0 6.6 2.8z"/><path d="m416.12 436.24a8.57 8.57 0 0 0 4.1 1 9.12 9.12 0 1 0 -4.1-1z"/><path d="m421.22 344.34a9 9 0 0 0 3-12.4 9.09 9.09 0 1 0 -7.8 13.8 10.27 10.27 0 0 0 4.8-1.4z"/><path d="m419.32 367.94a9.05 9.05 0 0 0 8.8 7.2 12.25 12.25 0 0 0 1.9-.2 9 9 0 1 0 -10.7-7z"/><path d="m402.62 318.44a9.1 9.1 0 1 0 -12.8 1.3 8.83 8.83 0 0 0 5.7 2 9.05 9.05 0 0 0 7.1-3.3z"/><path d="m49.82 212.44a9.21 9.21 0 0 0 9 7.8 5.7 5.7 0 0 0 1.3-.1 9.09 9.09 0 1 0 -10.3-7.7z"/><path d="m75.22 141.84a9.06 9.06 0 1 0 -9.2 15.6 9.29 9.29 0 0 0 4.6 1.2 9 9 0 0 0 7.8-4.5 8.83 8.83 0 0 0 -3.2-12.3z"/><path d="m88 275.44a9 9 0 1 0 -6.2-2.4 9.31 9.31 0 0 0 6.2 2.4z"/><path d="m118.22 275.44a9 9 0 0 0 -7.22 16.56 9.22 9.22 0 0 0 3.6.7 9 9 0 0 0 3.62-17.26z"/><path d="m98 119.54a9.08 9.08 0 0 0 -13.8 11.8 9.17 9.17 0 0 0 6.9 3.2 9 9 0 0 0 5.9-2.2 9.24 9.24 0 0 0 1-12.8z"/><path d="m57.72 188.24a11.13 11.13 0 0 0 1.7.2 9.08 9.08 0 1 0 -8.9-10.8 9.09 9.09 0 0 0 7.2 10.6z"/><path d="m68.72 250.34a9 9 0 0 0 4.2-1 9.14 9.14 0 1 0 -4.2 1z"/><path d="m438.52 398.94a9.07 9.07 0 1 0 -10.2 7.8 4.87 4.87 0 0 0 1.2.1 9.06 9.06 0 0 0 9-7.9z"/><path d="m209.22 282.44a9.1 9.1 0 1 0 9.1 9.1 9.07 9.07 0 0 0 -9.1-9.1z"/><path d="m303.42 479.94a9.1 9.1 0 1 0 9.1-9.1 9.07 9.07 0 0 0 -9.1 9.1z"/><path d="m207.72 479.94a9.1 9.1 0 1 0 9.1-9.1 9.07 9.07 0 0 0 -9.1 9.1z"/><path d="m304.82 282.44a9.1 9.1 0 1 0 9.1 9.1 9.07 9.07 0 0 0 -9.1-9.1z"/><path d="m241.12 282.44a9.1 9.1 0 1 0 9.1 9.1 9.07 9.07 0 0 0 -9.1-9.1z"/><path d="m175.92 479.94a9.1 9.1 0 1 0 9.1-9.1 9.07 9.07 0 0 0 -9.1 9.1z"/><path d="m239.62 479.94a9.1 9.1 0 1 0 9.1-9.1 9.13 9.13 0 0 0 -9.1 9.1z"/><path d="m271.52 479.94a9.05 9.05 0 1 0 9.1-9.1 9.07 9.07 0 0 0 -9.1 9.1z"/><path d="m273 282.44a9.1 9.1 0 1 0 9.1 9.1 9.07 9.07 0 0 0 -9.1-9.1z"/><path d="m168.22 291.44a9.1 9.1 0 1 0 9.1-9.1 9.13 9.13 0 0 0 -9.1 9.1z"/><path d="m158.52 102.84a9.05 9.05 0 1 0 -8.8 9.3 9 9 0 0 0 8.8-9.3z"/><path d="m136.42 290.64a9.14 9.14 0 0 0 8.4 9.7h.6a9 9 0 0 0 9-8.4 9.14 9.14 0 0 0 -8.4-9.7 8.92 8.92 0 0 0 -9.6 8.4z"/><path d="m126.82 105.94a9.05 9.05 0 1 0 -8.4 12.3 8.66 8.66 0 0 0 3.2-.6 9 9 0 0 0 5.2-11.7z"/><path d="m376.52 300.14a9 9 0 0 0 -5.5-11.6 9 9 0 1 0 -6.1 17 8.4 8.4 0 0 0 3.1.5 8.79 8.79 0 0 0 8.5-5.9z"/><path d="m336.82 282.44a9.05 9.05 0 1 0 -.1 18.1h.1a9.05 9.05 0 1 0 0-18.1z"/><path d="m375 480.54a10.36 10.36 0 0 0 3.8-.8 9.1 9.1 0 1 0 -3.8.8z"/><path d="m335.32 480.34a9.11 9.11 0 0 0 9 8.3h.8a9 9 0 0 0 -1.6-18 8.92 8.92 0 0 0 -8.2 9.7z"/><path d="m188.22 109.44a9 9 0 0 0 2.6-6.4 9.44 9.44 0 0 0 -2.6-6.4 9.05 9.05 0 1 0 -6.4 15.5 9.54 9.54 0 0 0 6.4-2.7z"/></g></svg>

<svg id="Layer_1" data-name="Layer 1" xmlns="http://www.w3.org/2000/svg" viewBox="0 0 389.59 489.04"><defs><style>.cls-1{fill:#d2e2ef;}.cls-2{fill:#337ab7;}</style></defs><title>path</title><polygon id="_Path_" data-name="&lt;Path&gt;" class="cls-1" points="380.49 103.04 149.29 8.94 180.59 103.04 149.19 197.04 380.49 103.04"/><path class="cls-2" d="M439.32,103a7.77,7.77,0,0,0-.2-1.6c0-.2-0.1-0.3-0.1-0.5-0.1-.4-0.2-0.7-0.3-1.1-0.1-.2-0.1-0.3-0.2-0.5a9.14,9.14,0,0,0-.7-1.4l-0.1-.1a10.63,10.63,0,0,0-.9-1.1l-0.3-.3a5.5,5.5,0,0,0-.9-0.7c-0.1-.1-0.3-0.2-0.4-0.3a10.91,10.91,0,0,0-1.1-.6c-0.1-.1-0.2-0.1-0.3-0.2h0l-231.2-94a9.08,9.08,0,0,0-12,11.3l30.3,91.2-30.5,91.2a9.14,9.14,0,0,0,8.6,12,8.29,8.29,0,0,0,3.4-.7l231.4-94h0.1a0.53,0.53,0,0,0,.3-0.2,10.91,10.91,0,0,0,1.1-.6c0.1-.1.3-0.2,0.4-0.3,0.3-.2.6-0.5,0.9-0.7l0.3-.3a10.59,10.59,0,0,0,1-1.2h0a6.11,6.11,0,0,0,.7-1.4c0.1-.2.1-0.3,0.2-0.5,0.1-.4.2-0.7,0.3-1.1,0-.2.1-0.3,0.1-0.5,0-.7.1-1.3,0.1-1.8h0Zm-225.5-78.3,170.1,69.2H236.82Zm23,87.3h147l-170.1,69.2Z" transform="translate(-49.73 0)"/><path class="cls-2" d="M153,488.94a9.22,9.22,0,1,0-6.4-2.7A8.69,8.69,0,0,0,153,488.94Z" transform="translate(-49.73 0)"/><path class="cls-2" d="M401.32,462.74a9,9,0,0,0,6.5-15.3,9.05,9.05,0,0,0-13.1,12.5A9.41,9.41,0,0,0,401.32,462.74Z" transform="translate(-49.73 0)"/><path class="cls-2" d="M416.12,436.24a8.57,8.57,0,0,0,4.1,1A9.12,9.12,0,1,0,416.12,436.24Z" transform="translate(-49.73 0)"/><path class="cls-2" d="M421.22,344.34a9,9,0,0,0,3-12.4,9.09,9.09,0,1,0-7.8,13.8A10.27,10.27,0,0,0,421.22,344.34Z" transform="translate(-49.73 0)"/><path class="cls-2" d="M419.32,367.94a9.05,9.05,0,0,0,8.8,7.2,12.25,12.25,0,0,0,1.9-.2A9,9,0,1,0,419.32,367.94Z" transform="translate(-49.73 0)"/><path class="cls-2" d="M402.62,318.44a9.1,9.1,0,1,0-12.8,1.3,8.83,8.83,0,0,0,5.7,2A9.05,9.05,0,0,0,402.62,318.44Z" transform="translate(-49.73 0)"/><path class="cls-2" d="M49.82,212.44a9.21,9.21,0,0,0,9,7.8,5.7,5.7,0,0,0,1.3-.1A9.09,9.09,0,1,0,49.82,212.44Z" transform="translate(-49.73 0)"/><path class="cls-2" d="M75.22,141.84a9.06,9.06,0,1,0-9.2,15.6,9.29,9.29,0,0,0,4.6,1.2,9,9,0,0,0,7.8-4.5A8.83,8.83,0,0,0,75.22,141.84Z" transform="translate(-49.73 0)"/><path class="cls-2" d="M88,275.44a9,9,0,1,0-6.2-2.4A9.31,9.31,0,0,0,88,275.44Z" transform="translate(-49.73 0)"/><path class="cls-2" d="M118.22,275.44A9,9,0,0,0,111,292a9.22,9.22,0,0,0,3.6.7A9,9,0,0,0,118.22,275.44Z" transform="translate(-49.73 0)"/><path class="cls-2" d="M98,119.54a9.08,9.08,0,0,0-13.8,11.8,9.17,9.17,0,0,0,6.9,3.2,9,9,0,0,0,5.9-2.2A9.24,9.24,0,0,0,98,119.54Z" transform="translate(-49.73 0)"/><path class="cls-2" d="M57.72,188.24a11.13,11.13,0,0,0,1.7.2,9.08,9.08,0,1,0-8.9-10.8h0A9.09,9.09,0,0,0,57.72,188.24Z" transform="translate(-49.73 0)"/><path class="cls-2" d="M68.72,250.34a9,9,0,0,0,4.2-1A9.14,9.14,0,1,0,68.72,250.34Z" transform="translate(-49.73 0)"/><path class="cls-2" d="M438.52,398.94a9.07,9.07,0,1,0-10.2,7.8,4.87,4.87,0,0,0,1.2.1A9.06,9.06,0,0,0,438.52,398.94Z" transform="translate(-49.73 0)"/><path class="cls-2" d="M209.22,282.44a9.1,9.1,0,1,0,9.1,9.1A9.07,9.07,0,0,0,209.22,282.44Z" transform="translate(-49.73 0)"/><path class="cls-2" d="M303.42,479.94a9.1,9.1,0,1,0,9.1-9.1A9.07,9.07,0,0,0,303.42,479.94Z" transform="translate(-49.73 0)"/><path class="cls-2" d="M207.72,479.94a9.1,9.1,0,1,0,9.1-9.1A9.07,9.07,0,0,0,207.72,479.94Z" transform="translate(-49.73 0)"/><path class="cls-2" d="M304.82,282.44a9.1,9.1,0,1,0,9.1,9.1A9.07,9.07,0,0,0,304.82,282.44Z" transform="translate(-49.73 0)"/><path class="cls-2" d="M241.12,282.44a9.1,9.1,0,1,0,9.1,9.1A9.07,9.07,0,0,0,241.12,282.44Z" transform="translate(-49.73 0)"/><path class="cls-2" d="M175.92,479.94a9.1,9.1,0,1,0,9.1-9.1A9.07,9.07,0,0,0,175.92,479.94Z" transform="translate(-49.73 0)"/><path class="cls-2" d="M239.62,479.94a9.1,9.1,0,1,0,9.1-9.1A9.13,9.13,0,0,0,239.62,479.94Z" transform="translate(-49.73 0)"/><path class="cls-2" d="M271.52,479.94a9.05,9.05,0,1,0,9.1-9.1A9.07,9.07,0,0,0,271.52,479.94Z" transform="translate(-49.73 0)"/><path class="cls-2" d="M273,282.44a9.1,9.1,0,1,0,9.1,9.1A9.07,9.07,0,0,0,273,282.44Z" transform="translate(-49.73 0)"/><path class="cls-2" d="M168.22,291.44a9.1,9.1,0,1,0,9.1-9.1A9.13,9.13,0,0,0,168.22,291.44Z" transform="translate(-49.73 0)"/><path class="cls-2" d="M158.52,102.84a9.05,9.05,0,1,0-8.8,9.3A9,9,0,0,0,158.52,102.84Z" transform="translate(-49.73 0)"/><path class="cls-2" d="M136.42,290.64a9.14,9.14,0,0,0,8.4,9.7h0.6a9,9,0,0,0,9-8.4,9.14,9.14,0,0,0-8.4-9.7A8.92,8.92,0,0,0,136.42,290.64Z" transform="translate(-49.73 0)"/><path class="cls-2" d="M126.82,105.94a9.05,9.05,0,1,0-8.4,12.3,8.66,8.66,0,0,0,3.2-.6A9,9,0,0,0,126.82,105.94Z" transform="translate(-49.73 0)"/><path class="cls-2" d="M376.52,300.14a9,9,0,0,0-5.5-11.6h0a9,9,0,1,0-6.1,17,8.4,8.4,0,0,0,3.1.5A8.79,8.79,0,0,0,376.52,300.14Z" transform="translate(-49.73 0)"/><path class="cls-2" d="M336.82,282.44a9.05,9.05,0,1,0-.1,18.1h0.1A9.05,9.05,0,1,0,336.82,282.44Z" transform="translate(-49.73 0)"/><path class="cls-2" d="M375,480.54a10.36,10.36,0,0,0,3.8-.8A9.1,9.1,0,1,0,375,480.54Z" transform="translate(-49.73 0)"/><path class="cls-2" d="M335.32,480.34a9.11,9.11,0,0,0,9,8.3h0.8a9,9,0,0,0-1.6-18h0A8.92,8.92,0,0,0,335.32,480.34Z" transform="translate(-49.73 0)"/><path class="cls-2" d="M188.22,109.44a9,9,0,0,0,2.6-6.4,9.44,9.44,0,0,0-2.6-6.4,9.05,9.05,0,1,0-6.4,15.5A9.54,9.54,0,0,0,188.22,109.44Z" transform="translate(-49.73 0)"/></svg>
